svg/fluentui-system-icons/ic_fluent_panel_left_add_24_filled.svg

<svg width="24" height="24" viewBox="0 0 24 24" fill="none" xmlns="http://www.w3.org/2000/svg">
<path d="M5.25 4C3.45507 4 2 5.45507 2 7.25V16.75C2 18.5449 3.45508 20 5.25 20H11.4982C11.3004 19.5258 11.1572 19.0232 11.0764 18.5H9.5V5.5H18.75C19.7165 5.5 20.5 6.2835 20.5 7.25V11.7322C21.051 12.0194 21.5557 12.3832 22 12.8096V7.25C22 5.45507 20.5449 4 18.75 4H5.25ZM23 17.5C23 14.4624 20.5376 12 17.5 12C14.4624 12 12 14.4624 12 17.5C12 20.5376 14.4624 23 17.5 23C20.5376 23 23 20.5376 23 17.5ZM18.0006 18L18.0011 20.5035C18.0011 20.7797 17.7773 21.0035 17.5011 21.0035C17.225 21.0035 17.0011 20.7797 17.0011 20.5035L17.0006 18H14.4956C14.2197 18 13.9961 17.7762 13.9961 17.5C13.9961 17.2239 14.2197 17 14.4956 17H17.0005L17 14.4993C17 14.2231 17.2239 13.9993 17.5 13.9993C17.7761 13.9993 18 14.2231 18 14.4993L18.0005 17H20.4966C20.7725 17 20.9961 17.2239 20.9961 17.5C20.9961 17.7762 20.7725 18 20.4966 18H18.0006Z" fill="#212121"/>
</svg>

<svg xmlns="http://www.w3.org/2000/svg" width="24" height="24"><path d="M5.25 4A3.25 3.25 0 0 0 2 7.25v9.5A3.25 3.25 0 0 0 5.25 20h6.248a6.452 6.452 0 0 1-.422-1.5H9.5v-13h9.25c.966 0 1.75.784 1.75 1.75v4.482A6.518 6.518 0 0 1 22 12.81V7.25A3.25 3.25 0 0 0 18.75 4H5.25ZM23 17.5a5.5 5.5 0 1 0-11 0 5.5 5.5 0 0 0 11 0Zm-5 .5.001 2.503a.5.5 0 1 1-1 0V18h-2.505a.5.5 0 0 1 0-1H17v-2.5a.5.5 0 1 1 1 0V17h2.497a.5.5 0 0 1 0 1H18Z"/></svg>
